X:152
T:Reel 152
M:4/4
K:Gmaj
L:1/8
g2dc BGGB|A>f (3fff A>f (3fff |gfdc BdGB|cefg afgf|g2dc BGGB|ABcB AFAF|GABc dggf| (3ded cA AGG2|dgga b2bg|a2db c'afd|dggf babc'|ad'c'a agg2|dgga b2bg|a2ab c'2bc'| (3d'c'b c'a bgag| (3def gb agg2|
